assets/icons/librescoot-parking-brake.svg

<svg xmlns="http://www.w3.org/2000/svg" width="96" height="96" fill="none" viewBox="0 0 96 96"><path stroke="red" stroke-width="3" d="M48.0007 78.24c16.7011 0 30.24-13.5389 30.24-30.24s-13.5389-30.24-30.24-30.24-30.24 13.5389-30.24 30.24 13.539 30.24 30.24 30.24Z"/><path stroke="red" stroke-width="4.5" d="M74.305 21.696a37.2 37.2 0 0 1 8.064 40.54 37.2 37.2 0 0 1-8.064 12.069M21.696 21.696a37.2 37.2 0 0 0 0 52.609"/><path fill="red" d="M38.5869 65.8992V30.5007h11.8455q3.1274 0 4.7766.338 2.3134.4347 3.8771 1.6661 1.5636 1.2073 2.5062 3.4047.9638 2.1973.9638 4.8293 0 4.5154-2.5489 7.6545-2.549 3.1149-9.2108 3.1149h-8.0539v14.3914zm4.1555-18.5688h8.1183q4.0269 0 5.7192-1.6902t1.6922-4.7569q0-2.2214-1.0068-3.791-.9854-1.5936-2.6133-2.1007-1.0495-.314-3.877-.314h-8.0323z"/></svg>

<svg width="96" height="96" viewBox="0 0 96 96" fill="none" xmlns="http://www.w3.org/2000/svg">
<path d="M48.0007 78.24C64.7018 78.24 78.2407 64.7011 78.2407 48C78.2407 31.2989 64.7018 17.76 48.0007 17.76C31.2997 17.76 17.7607 31.2989 17.7607 48C17.7607 64.7011 31.2997 78.24 48.0007 78.24Z" stroke="#FF0000" stroke-width="3"/>
<path d="M74.3047 21.6955C77.759 25.1499 80.4991 29.2508 82.3686 33.7641C84.2381 38.2775 85.2002 43.1148 85.2002 48C85.2002 52.8852 84.2381 57.7225 82.3686 62.2359C80.4991 66.7492 77.759 70.8501 74.3047 74.3045" stroke="#FF0000" stroke-width="4.5"/>
<path d="M21.6963 21.6955C18.242 25.1499 15.5018 29.2508 13.6324 33.7641C11.7629 38.2775 10.8008 43.1148 10.8008 48C10.8008 52.8852 11.7629 57.7225 13.6324 62.2359C15.5018 66.7492 18.242 70.8501 21.6963 74.3045" stroke="#FF0000" stroke-width="4.5"/>
<path d="M38.5869 65.8992V30.5007H50.4324C52.5173 30.5007 54.1095 30.6134 55.209 30.8387C56.7513 31.1285 58.0436 31.6839 59.0861 32.5048C60.1285 33.3097 60.9639 34.4446 61.5923 35.9095C62.2348 37.3744 62.5561 38.9841 62.5561 40.7388C62.5561 43.749 61.7065 46.3006 60.0072 48.3933C58.3078 50.4699 55.2376 51.5082 50.7964 51.5082H42.7425V65.8996L38.5869 65.8992ZM42.7424 47.3304H50.8607C53.5453 47.3304 55.4517 46.767 56.5799 45.6402C57.708 44.5133 58.2721 42.9277 58.2721 40.8833C58.2721 39.4023 57.9365 38.1387 57.2653 37.0923C56.6084 36.0299 55.7373 35.3296 54.652 34.9916C53.9523 34.7823 52.66 34.6776 50.775 34.6776H42.7427L42.7424 47.3304Z" fill="#FF0000"/>
</svg>
